X:1
T:The Days Are Swiftly Going By
T:The Days Are Swiftly Going By
T:Claude Hinton Bottoms
T:J. S. Kimbrough, 1904
T:Public Domain Courtesy of the Cyber Hymnal™
T:Public Domain Courtesy of the Cyber Hymnal™
C:Claude Hinton Bottoms
Z:Public Domain
Z:Courtesy of the Cyber Hymnal™
%%score ( 1 2 ) ( 3 4 )
L:1/8
Q:1/4=88
M:3/4
K:F
V:1 treble 
V:2 treble 
V:3 bass 
V:4 bass 
V:1
 CA>^G | A3 B F>G | A3 C A>^G | G3 B A>^G | A3 C A>G | F3 A c>c | B3 D A>G | C3 F G>A | %8
w: 1.~The days are|swift- ly go- ing|by, The fleet- ing,|pass- ing mo- ments|say; With ra- pid|wing they speed a-|way, Nor in their|on- ward jour- ney|
w: 2.~The morn- ing|light but scarce- ly|breaks Be- fore the|night’s dark gloom ap-|pears; An ev- er-|last- ing flight it|takes, And joins the|dead and bur- ied|
w: 3.~Life is a|day that soon is|o’er, A span of|time that quick- ly|flies; And then we|sleep, to dream no|more Till res- ur-|rec- tion’s morn we|
 !fermata!F3 ||[M:4/4]"^Refrain" FFF | (z [Fd])fe d x3 | z [Fc][Ac][Bd] [Ac] x2 | %12
w: stay.|Thy grace, O|* Lord, on us|* be- stow, Teach|
w: years.||||
w: rise.||||
 B4- [EB][EG][Ac][GB] | [FA]4- [FA]Ffe | (z [Fd])fe d x3 | z [Fc]CF A x2 | z [Ac][FA][FA] [EG] x3 | %17
w: * us the ways of|* * sin to shun;|* Give us the|* joys of Heav’n|* to know, When|
w: |||||
w: |||||
 F4- !fermata![CF] |] %18
w: |
w: |
w: |
V:2
 x3 | x6 | x6 | x6 | x6 | x6 | x6 | x6 | x3 ||[M:4/4] x3 | d4- F F F x | c4- F F F | G E E E x4 | %13
 x8 | d4- F F F x | c4- F F F | c4 A A A x | F C D D x |] %18
V:3
 A,C>=B, | C3 D D>_D | C3 A, C>=B, | B,3 D C>=B, | C3 A, C>B, | A,3 C _E>E | D3 B, C>B, | %7
w: ~ ~ ~|~ ~ ~ ~|~ ~ ~ ~|~ ~ ~ ~|~ ~ ~ ~|~ ~ ~ ~|~ ~ ~ ~|
 A,3 [F,,A,] B,>C | A,3 ||[M:4/4] A,A,A, | z _B,DC B, x3 | z [F,A,] z3 x2 | %12
w: ~ ~ ~ ~|~|~ ~ ~|~ Thy grace, O|~|
 z [C,C][E,C][G,C] C z3 | z [F,,C][A,,C][C,C] [F,C]_EDC | z _B,DC B, x3 | z [F,A,] z3 x2 | %16
w: ~ ~ on us|be- stow; Teach us the ways of|sin to shun; ~|~|
 z [C,F][F,F][A,F] [CF][C,C][C,C][C,B,] | A,A,B,A, !fermata![F,A,] |] %18
w: Give us the joys, ~ ~ ~|~ of Heav’n to When|
V:4
 x3 | (F,,C, F,) x3 | (F,,C, F,) x3 | (E,,G,, C,) x3 | (F,,C, F,) x3 | (F,,C, F,) x3 | %6
w: ||||||
 (B,,D, F,) x3 | (F,,C, F,) [C,E,]2 x | (F,C, F,,) ||[M:4/4] x3 | B,4- B,,D,F,_B, | A,4- F,,A,,C, | %12
w: ||||* * * * Lord,||
 x4 C x3 | x8 | B,4- B,,D,F,_B, | A,4- F,,A,,C, | x8 | F,4- x |] %18
w: ||* * * * ~||||

